X: 1
T: Dixie
P: piffero primo a0743
O: Dan Emmett
%R: march, reel
F: http://ancients.sudburymuster.org/mus/sng/pdf/dixieC0.pdf
Z: 2020 John Chambers <jc:trillian.mit.edu>
M: 2/4
L: 1/16
K: G
dB |\
G2G2 GABc | d2d2 d2B2 | e2e2 e3d | e2d2 efga |\
b6 gd | g6 dB | d6 AB | G4 z2 !segno!:|\
d2 |\
g2b2 a2g2 | e2 g4 e2 | a6 e2 | a6 d2 |
g2b2 a3g | e2f2 g3e | d2B2 g3d | B2 A4 B2 |\
G6 B2 | A3 d2 | B2d2 b3g | a2 g6 |\
G6 B2 | A6 e2 | d2B2 b3g | a2 g4 |: G2 |\
DGBG dGBG |
cGeG dGBG | DGBG dGBG | Afe^c d4 |\
DGBG dGBG | cGeG dGBG | A(ed)F GDBG | A(ed)F "DS al Fine"G2 :| y8
